src/assets/flags/ug.svg

<?xml version="1.0" encoding="UTF-8"?>
<svg xmlns="http://www.w3.org/2000/svg" xmlns:xlink="http://www.w3.org/1999/xlink" width="25px" height="px" viewBox="0 0 25 19" version="1.1">
<g id="surface1">
<path style=" stroke:none;fill-rule:evenodd;fill:rgb(100%,90.588236%,0%);fill-opacity:1;" d="M -1.5625 12.667969 L 26.5625 12.667969 L 26.5625 15.835938 L -1.5625 15.835938 Z M -1.5625 12.667969 "/>
<path style=" stroke:none;fill-rule:evenodd;fill:rgb(0%,0%,0.392157%);fill-opacity:1;" d="M -1.5625 9.5 L 26.5625 9.5 L 26.5625 12.664062 L -1.5625 12.664062 Z M -1.5625 9.5 "/>
<path style=" stroke:none;fill-rule:evenodd;fill:rgb(87.058824%,22.352941%,3.137255%);fill-opacity:1;" d="M -1.5625 6.335938 L 26.5625 6.335938 L 26.5625 9.5 L -1.5625 9.5 Z M -1.5625 6.335938 "/>
<path style=" stroke:none;fill-rule:evenodd;fill:rgb(100%,90.588236%,0%);fill-opacity:1;" d="M -1.5625 3.167969 L 26.5625 3.167969 L 26.5625 6.335938 L -1.5625 6.335938 Z M -1.5625 3.167969 "/>
<path style=" stroke:none;fill-rule:evenodd;fill:rgb(0%,0%,0.392157%);fill-opacity:1;" d="M -1.5625 0 L 26.5625 0 L 26.5625 3.164062 L -1.5625 3.164062 Z M -1.5625 0 "/>
<path style="fill-rule:evenodd;fill:rgb(100%,99.215686%,100%);fill-opacity:1;stroke-width:1;stroke-linecap:butt;stroke-linejoin:miter;stroke:rgb(0%,0%,0%);stroke-opacity:1;stroke-miterlimit:4;" d="M 335.68 256 C 335.68 300 300.053333 335.684211 256 335.684211 C 211.946667 335.684211 176.32 300 176.32 256 C 176.32 212 211.946667 176.315789 256 176.315789 C 300.053333 176.315789 335.68 212 335.68 256 Z M 335.68 256 " transform="matrix(0.0366211,0,0,0.0371094,3.125,0)"/>
<path style="fill-rule:evenodd;fill:rgb(87.058824%,19.215687%,3.137255%);fill-opacity:1;stroke-width:1;stroke-linecap:butt;stroke-linejoin:miter;stroke:rgb(0%,0%,0%);stroke-opacity:1;stroke-miterlimit:4;" d="M 242.026667 194.947368 L 236.8 185.368421 C 238.826667 183.368421 242.133333 181.789474 247.466667 181.789474 L 246.933333 192.315789 Z M 242.026667 194.947368 " transform="matrix(0.0366211,0,0,0.0371094,3.125,0)"/>
<path style="fill-rule:evenodd;fill:rgb(100%,90.588236%,0%);fill-opacity:1;stroke-width:1;stroke-linecap:butt;stroke-linejoin:miter;stroke:rgb(0%,0%,0%);stroke-opacity:1;stroke-miterlimit:4;" d="M 247.04 192.315789 L 247.68 181.789474 C 247.68 181.789474 258.346667 181.157895 264.213333 188.210526 L 258.453333 196.421053 Z M 247.04 192.315789 " transform="matrix(0.0366211,0,0,0.0371094,3.125,0)"/>
<path style="fill-rule:evenodd;fill:rgb(87.058824%,19.215687%,3.137255%);fill-opacity:1;stroke-width:1;stroke-linecap:butt;stroke-linejoin:miter;stroke:rgb(0%,0%,0%);stroke-opacity:1;stroke-miterlimit:4;" d="M 258.56 196.315789 L 263.893333 188.105263 C 267.413333 191.789474 268.906667 194.421053 269.44 198.421053 C 269.546667 198.526316 261.12 200.526316 261.12 200.421053 Z M 258.56 196.315789 " transform="matrix(0.0366211,0,0,0.0371094,3.125,0)"/>
<path style="fill-rule:evenodd;fill:rgb(0%,0%,0%);fill-opacity:1;stroke-width:0.9;stroke-linecap:round;stroke-linejoin:round;stroke:rgb(0%,0%,0%);stroke-opacity:1;stroke-miterlimit:4;" d="M 244.586667 331.052632 C 244.586667 331.052632 254.506667 319.789474 273.706667 322.210526 C 270.826667 317.473684 261.44 318.105263 261.44 318.105263 C 261.44 318.105263 258.56 296.105263 260.8 294.947368 C 263.04 293.684211 272.746667 295.052632 272.746667 295.052632 C 274.026667 295.052632 276.16 291.578947 274.346667 289.368421 C 272.64 287.157895 267.626667 278.947368 269.653333 277.157895 C 271.786667 275.473684 283.093333 278.210526 283.093333 278.210526 L 251.093333 237.157895 C 251.093333 237.157895 247.786667 221.684211 254.4 214.210526 C 262.293333 207.684211 261.44 200.631579 261.226667 200.736842 C 260.053333 193.473684 249.173333 188.421053 241.813333 195.052632 C 237.546667 200.210526 240.426667 204.210526 240.426667 204.210526 C 240.426667 204.210526 228.906667 207.263158 228.48 209.263158 C 228.053333 211.263158 241.386667 209.052632 241.386667 209.052632 L 240.106667 218.105263 C 240.106667 218.105263 214.08 241.684211 234.133333 262.105263 L 234.666667 261.263158 C 234.666667 261.263158 241.706667 269.894737 248.96 271.789474 C 256 278.842105 255.253333 277.789474 255.253333 277.789474 C 255.253333 277.789474 256.64 288.947368 255.253333 291.052632 C 253.653333 290.631579 235.946667 289.894737 233.386667 290.947368 C 231.04 291.684211 221.973333 291.157895 224.213333 306 L 227.52 298.526316 C 227.52 298.526316 227.2 303.789474 229.44 305.684211 C 229.013333 300.105263 231.466667 296.315789 231.466667 296.315789 C 231.466667 296.315789 231.893333 302.526316 233.28 303.263158 C 234.666667 304.315789 234.666667 293.263158 242.346667 294.315789 C 249.706667 295.157895 255.146667 294.947368 255.146667 294.947368 C 255.146667 294.947368 257.706667 316.315789 256.853333 318.315789 C 251.52 317.052632 238.506667 318.842105 237.653333 322.105263 C 245.333333 321.578947 248.853333 322.526316 248.853333 322.526316 C 248.853333 322.526316 242.666667 328 244.586667 331.052632 " transform="matrix(0.0366211,0,0,0.0371094,3.125,0)"/>
<path style="fill-rule:evenodd;fill:rgb(61.176473%,65.098041%,61.176473%);fill-opacity:1;stroke-width:0.9;stroke-linecap:round;stroke-linejoin:round;stroke:rgb(61.176473%,65.098041%,61.176473%);stroke-opacity:1;stroke-miterlimit:4;" d="M 247.573333 214.842105 C 247.573333 214.842105 228.693333 235.578947 236.906667 251.473684 C 237.333333 249.263158 237.12 247.894737 237.44 248 C 236.906667 247.684211 239.68 249.894737 239.466667 249.473684 C 239.466667 248.315789 238.72 245.789474 238.72 245.789474 L 241.173333 246.526316 L 239.68 243.684211 L 243.413333 244.105263 C 243.413333 244.105263 242.133333 240.736842 242.453333 240.736842 L 245.546667 240.947368 C 240.106667 231.263158 245.226667 223.263158 247.573333 214.736842 Z M 247.573333 214.842105 " transform="matrix(0.0366211,0,0,0.0371094,3.125,0)"/>
<path style="fill-rule:evenodd;fill:rgb(61.176473%,65.098041%,61.176473%);fill-opacity:1;stroke-width:1;stroke-linecap:butt;stroke-linejoin:miter;stroke:rgb(61.176473%,65.098041%,61.176473%);stroke-opacity:1;stroke-miterlimit:4;" d="M 254.186667 196.947368 C 254.186667 196.947368 255.146667 204.105263 251.2 206.105263 C 250.666667 206.631579 248.213333 207.368421 248.64 208.947368 C 248.96 210.947368 250.133333 210.526316 251.626667 210.105263 C 255.68 209.368421 260.48 200.736842 254.186667 196.947368 Z M 254.186667 196.947368 " transform="matrix(0.0366211,0,0,0.0371094,3.125,0)"/>
<path style=" stroke:none;fill-rule:evenodd;fill:rgb(100%,100%,100%);fill-opacity:1;" d="M 12.179688 7.53125 C 12.179688 7.5625 12.152344 7.589844 12.121094 7.589844 C 12.09375 7.589844 12.066406 7.5625 12.066406 7.53125 C 12.066406 7.503906 12.09375 7.476562 12.121094 7.476562 C 12.152344 7.476562 12.179688 7.503906 12.179688 7.53125 "/>
<path style="fill-rule:evenodd;fill:rgb(87.058824%,19.215687%,3.137255%);fill-opacity:1;stroke-width:1;stroke-linecap:butt;stroke-linejoin:miter;stroke:rgb(0%,0%,0%);stroke-opacity:1;stroke-miterlimit:4;" d="M 241.066667 209.052632 C 240.106667 209.894737 234.88 215.263158 240.106667 217.263158 C 245.44 215.894737 243.946667 214.947368 245.12 213.684211 C 245.12 211.157895 242.453333 210.631579 241.066667 209.052632 Z M 241.066667 209.052632 " transform="matrix(0.0366211,0,0,0.0371094,3.125,0)"/>
<path style="fill-rule:evenodd;fill:rgb(61.176473%,65.098041%,61.176473%);fill-opacity:1;stroke-width:0.9;stroke-linecap:round;stroke-linejoin:round;stroke:rgb(61.176473%,65.098041%,61.176473%);stroke-opacity:1;stroke-miterlimit:4;" d="M 252.586667 260.526316 C 252.266667 261.684211 251.093333 266.105263 252.693333 269.473684 C 257.28 267.473684 259.413333 268.105263 260.906667 269.052632 C 257.173333 266.105263 255.68 264.842105 252.586667 260.526316 " transform="matrix(0.0366211,0,0,0.0371094,3.125,0)"/>
<path style="fill-rule:evenodd;fill:rgb(100%,100%,100%);fill-opacity:1;stroke-width:0.9;stroke-linecap:round;stroke-linejoin:round;stroke:rgb(100%,100%,100%);stroke-opacity:1;stroke-miterlimit:4;" d="M 260.373333 281.052632 L 260.586667 291.263158 C 260.586667 291.263158 264.213333 291.894737 265.813333 291.263158 C 267.413333 290.736842 265.813333 284.315789 260.373333 281.052632 " transform="matrix(0.0366211,0,0,0.0371094,3.125,0)"/>
<path style="fill-rule:evenodd;fill:rgb(61.176473%,65.098041%,61.176473%);fill-opacity:1;stroke-width:1;stroke-linecap:butt;stroke-linejoin:miter;stroke:rgb(0%,0%,0%);stroke-opacity:1;stroke-miterlimit:4;" d="M 285.973333 282.421053 C 285.973333 282.421053 279.466667 266.631579 262.826667 262.631579 C 246.08 258.631579 248.32 240.842105 249.6 239.684211 C 250.453333 238.210526 250.88 235.789474 255.68 238.105263 C 260.48 240.421053 282.666667 251.473684 285.866667 252.105263 C 289.066667 252.736842 286.293333 282.842105 286.08 282.421053 Z M 285.973333 282.421053 " transform="matrix(0.0366211,0,0,0.0371094,3.125,0)"/>
<path style="fill-rule:evenodd;fill:rgb(87.058824%,19.215687%,3.137255%);fill-opacity:1;stroke-width:0.9;stroke-linecap:butt;stroke-linejoin:round;stroke:rgb(0%,0%,0%);stroke-opacity:1;stroke-miterlimit:4;" d="M 270.186667 262.526316 C 269.866667 262.736842 292.48 275.894737 285.653333 287.157895 C 292.053333 282.947368 290.133333 275.473684 290.133333 275.473684 C 290.133333 275.473684 295.253333 289.157895 282.453333 295.894737 C 283.946667 297.052632 284.8 296.947368 284.8 296.947368 L 282.56 298.947368 C 282.56 298.947368 281.6 300.736842 290.24 296.526316 C 287.893333 298.421053 287.68 299.789474 287.68 299.789474 C 287.68 299.789474 288.32 301.578947 293.866667 296.736842 C 289.386667 301.578947 288.426667 304.105263 288.426667 304 C 300.693333 302.947368 327.36 262.947368 280 251.263158 L 282.133333 253.473684 Z M 270.186667 262.526316 " transform="matrix(0.0366211,0,0,0.0371094,3.125,0)"/>
<path style="fill-rule:evenodd;fill:rgb(100%,100%,100%);fill-opacity:1;stroke-width:0.9;stroke-linecap:round;stroke-linejoin:round;stroke:rgb(0%,0%,0%);stroke-opacity:1;stroke-miterlimit:4;" d="M 271.146667 258.631579 C 274.24 260.842105 275.306667 261.578947 275.733333 262.631579 C 272.853333 262 270.4 262.210526 270.4 262.210526 C 270.4 262.210526 264.32 256.421053 263.253333 255.894737 C 262.4 255.894737 257.6 252.947368 257.6 252.947368 C 255.253333 251.684211 253.12 243.578947 261.76 245.894737 C 265.173333 247.684211 268.586667 249.157895 272.106667 250.526316 L 282.773333 253.894737 L 288.96 260.842105 C 288.96 260.842105 277.973333 255.368421 276.586667 255.263158 C 279.573333 257.684211 281.28 261.052632 281.28 261.052632 C 277.76 260.105263 274.773333 259.052632 271.146667 258.631579 " transform="matrix(0.0366211,0,0,0.0371094,3.125,0)"/>
<path style="fill:none;stroke-width:0.9;stroke-linecap:round;stroke-linejoin:miter;stroke:rgb(100%,100%,100%);stroke-opacity:1;stroke-miterlimit:4;" d="M 228.373333 209.894737 C 228.373333 209.894737 238.933333 207.263158 240.213333 207.684211 " transform="matrix(0.0366211,0,0,0.0371094,3.125,0)"/>
<path style=" stroke:none;fill-rule:evenodd;fill:rgb(87.058824%,22.352941%,3.137255%);fill-opacity:1;" d="M -1.5625 15.835938 L 26.5625 15.835938 L 26.5625 19 L -1.5625 19 Z M -1.5625 15.835938 "/>
</g>
</svg>

<svg xmlns="http://www.w3.org/2000/svg" width="25" height="px" viewBox="0 0 25 19"><path d="M-1.562 12.668h28.125v3.168H-1.562Zm0 0" style="stroke:none;fill-rule:evenodd;fill:#ffe700;fill-opacity:1"/><path d="M-1.562 9.5h28.125v3.164H-1.562Zm0 0" style="stroke:none;fill-rule:evenodd;fill:#000001;fill-opacity:1"/><path d="M-1.562 6.336h28.125V9.5H-1.562Zm0 0" style="stroke:none;fill-rule:evenodd;fill:#de3908;fill-opacity:1"/><path d="M-1.562 3.168h28.125v3.168H-1.562Zm0 0" style="stroke:none;fill-rule:evenodd;fill:#ffe700;fill-opacity:1"/><path d="M-1.562 0h28.125v3.164H-1.562Zm0 0" style="stroke:none;fill-rule:evenodd;fill:#000001;fill-opacity:1"/><path d="M335.68 256c0 44-35.627 79.684-79.68 79.684S176.32 300 176.32 256s35.627-79.684 79.68-79.684S335.68 212 335.68 256Zm0 0" style="fill-rule:evenodd;fill:#fffdff;fill-opacity:1;stroke-width:1;stroke-linecap:butt;stroke-linejoin:miter;stroke:#000;stroke-opacity:1;stroke-miterlimit:4" transform="matrix(.03662 0 0 .0371 3.125 0)"/><path d="m242.027 194.947-5.227-9.579c2.027-2 5.333-3.579 10.667-3.579l-.534 10.527Zm0 0" style="fill-rule:evenodd;fill:#de3108;fill-opacity:1;stroke-width:1;stroke-linecap:butt;stroke-linejoin:miter;stroke:#000;stroke-opacity:1;stroke-miterlimit:4" transform="matrix(.03662 0 0 .0371 3.125 0)"/><path d="m247.04 192.316.64-10.527s10.667-.631 16.533 6.422l-5.76 8.21Zm0 0" style="fill-rule:evenodd;fill:#ffe700;fill-opacity:1;stroke-width:1;stroke-linecap:butt;stroke-linejoin:miter;stroke:#000;stroke-opacity:1;stroke-miterlimit:4" transform="matrix(.03662 0 0 .0371 3.125 0)"/><path d="m258.56 196.316 5.333-8.21c3.52 3.683 5.014 6.315 5.547 10.315.107.105-8.32 2.105-8.32 2Zm0 0" style="fill-rule:evenodd;fill:#de3108;fill-opacity:1;stroke-width:1;stroke-linecap:butt;stroke-linejoin:miter;stroke:#000;stroke-opacity:1;stroke-miterlimit:4" transform="matrix(.03662 0 0 .0371 3.125 0)"/><path d="M244.587 331.053s9.92-11.264 29.12-8.842c-2.88-4.737-12.267-4.106-12.267-4.106s-2.88-22-.64-23.158c2.24-1.263 11.947.106 11.947.106 1.28 0 3.413-3.474 1.6-5.685-1.707-2.21-6.72-10.42-4.694-12.21 2.134-1.684 13.44 1.053 13.44 1.053l-32-41.053s-3.306-15.474 3.307-22.947c7.893-6.527 7.04-13.58 6.827-13.474-1.174-7.263-12.054-12.316-19.414-5.684-4.266 5.158-1.386 9.158-1.386 9.158s-11.52 3.052-11.947 5.052 12.907-.21 12.907-.21l-1.28 9.052s-26.027 23.58-5.974 44l.534-.842s7.04 8.632 14.293 10.526c7.04 7.053 6.293 6 6.293 6s1.387 11.158 0 13.264c-1.6-.421-19.306-1.158-21.866-.106-2.347.737-11.414.21-9.174 15.053l3.307-7.474s-.32 5.263 1.92 7.158c-.427-5.579 2.027-9.368 2.027-9.368s.426 6.21 1.813 6.947c1.387 1.053 1.387-10 9.067-8.947 7.36.842 12.8.631 12.8.631s2.56 21.369 1.706 23.369c-5.333-1.263-18.346.526-19.2 3.79 7.68-.527 11.2.42 11.2.42s-6.186 5.474-4.266 8.527" style="fill-rule:evenodd;fill:#000;fill-opacity:1;stroke-width:.9;stroke-linecap:round;stroke-linejoin:round;stroke:#000;stroke-opacity:1;stroke-miterlimit:4" transform="matrix(.03662 0 0 .0371 3.125 0)"/><path d="M247.573 214.842s-18.88 20.737-10.666 36.632c.426-2.21.213-3.58.533-3.474-.533-.316 2.24 1.895 2.027 1.474 0-1.158-.747-3.685-.747-3.685l2.453.737-1.493-2.842 3.733.421s-1.28-3.368-.96-3.368l3.094.21c-5.44-9.684-.32-17.684 2.026-26.21Zm0 0" style="fill-rule:evenodd;fill:#9ca69c;fill-opacity:1;stroke-width:.9;stroke-linecap:round;stroke-linejoin:round;stroke:#9ca69c;stroke-opacity:1;stroke-miterlimit:4" transform="matrix(.03662 0 0 .0371 3.125 0)"/><path d="M254.187 196.947s.96 7.158-2.987 9.158c-.533.527-2.987 1.263-2.56 2.842.32 2 1.493 1.58 2.987 1.158 4.053-.737 8.853-9.368 2.56-13.158Zm0 0" style="fill-rule:evenodd;fill:#9ca69c;fill-opacity:1;stroke-width:1;stroke-linecap:butt;stroke-linejoin:miter;stroke:#9ca69c;stroke-opacity:1;stroke-miterlimit:4" transform="matrix(.03662 0 0 .0371 3.125 0)"/><path d="M12.18 7.531a.06.06 0 0 1-.059.059c-.027 0-.055-.027-.055-.059 0-.027.028-.054.055-.054.031 0 .059.027.059.054" style="stroke:none;fill-rule:evenodd;fill:#fff;fill-opacity:1"/><path d="M241.067 209.053c-.96.842-6.187 6.21-.96 8.21 5.333-1.368 3.84-2.316 5.013-3.579 0-2.526-2.667-3.052-4.053-4.631Zm0 0" style="fill-rule:evenodd;fill:#de3108;fill-opacity:1;stroke-width:1;stroke-linecap:butt;stroke-linejoin:miter;stroke:#000;stroke-opacity:1;stroke-miterlimit:4" transform="matrix(.03662 0 0 .0371 3.125 0)"/><path d="M252.587 260.526c-.32 1.158-1.494 5.58.106 8.948 4.587-2 6.72-1.369 8.214-.421-3.734-2.948-5.227-4.21-8.32-8.527" style="fill-rule:evenodd;fill:#9ca69c;fill-opacity:1;stroke-width:.9;stroke-linecap:round;stroke-linejoin:round;stroke:#9ca69c;stroke-opacity:1;stroke-miterlimit:4" transform="matrix(.03662 0 0 .0371 3.125 0)"/><path d="m260.373 281.053.214 10.21s3.626.632 5.226 0c1.6-.526 0-6.947-5.44-10.21" style="fill-rule:evenodd;fill:#fff;fill-opacity:1;stroke-width:.9;stroke-linecap:round;stroke-linejoin:round;stroke:#fff;stroke-opacity:1;stroke-miterlimit:4" transform="matrix(.03662 0 0 .0371 3.125 0)"/><path d="M285.973 282.421s-6.506-15.79-23.146-19.79c-16.747-4-14.507-21.789-13.227-22.947.853-1.473 1.28-3.895 6.08-1.579s26.987 13.369 30.187 14 .426 30.737.213 30.316Zm0 0" style="fill-rule:evenodd;fill:#9ca69c;fill-opacity:1;stroke-width:1;stroke-linecap:butt;stroke-linejoin:miter;stroke:#000;stroke-opacity:1;stroke-miterlimit:4" transform="matrix(.03662 0 0 .0371 3.125 0)"/><path d="M270.187 262.526c-.32.21 22.293 13.369 15.466 24.632 6.4-4.21 4.48-11.684 4.48-11.684s5.12 13.684-7.68 20.42c1.494 1.159 2.347 1.053 2.347 1.053l-2.24 2s-.96 1.79 7.68-2.42c-2.347 1.894-2.56 3.262-2.56 3.262s.64 1.79 6.187-3.052c-4.48 4.842-5.44 7.368-5.44 7.263 12.266-1.053 38.933-41.053-8.427-52.737l2.133 2.21Zm0 0" style="fill-rule:evenodd;fill:#de3108;fill-opacity:1;stroke-width:.9;stroke-linecap:butt;stroke-linejoin:round;stroke:#000;stroke-opacity:1;stroke-miterlimit:4" transform="matrix(.03662 0 0 .0371 3.125 0)"/><path d="M271.147 258.632c3.093 2.21 4.16 2.947 4.586 4-2.88-.632-5.333-.421-5.333-.421s-6.08-5.79-7.147-6.316c-.853 0-5.653-2.948-5.653-2.948-2.347-1.263-4.48-9.368 4.16-7.052 3.413 1.79 6.827 3.263 10.347 4.631l10.666 3.369 6.187 6.947s-10.987-5.474-12.373-5.579c2.986 2.421 4.693 5.79 4.693 5.79-3.52-.948-6.507-2-10.133-2.421" style="fill-rule:evenodd;fill:#fff;fill-opacity:1;stroke-width:.9;stroke-linecap:round;stroke-linejoin:round;stroke:#000;stroke-opacity:1;stroke-miterlimit:4" transform="matrix(.03662 0 0 .0371 3.125 0)"/><path d="M228.373 209.895s10.56-2.632 11.84-2.21" style="fill:none;stroke-width:.9;stroke-linecap:round;stroke-linejoin:miter;stroke:#fff;stroke-opacity:1;stroke-miterlimit:4" transform="matrix(.03662 0 0 .0371 3.125 0)"/><path d="M-1.562 15.836h28.125V19H-1.562Zm0 0" style="stroke:none;fill-rule:evenodd;fill:#de3908;fill-opacity:1"/></svg>
